!!!OTL: 8. Mazltov (Dobranoch)
!!!Genre:	Mazltov (Dobranoch)
!!!Mode:	Minor
!!!Listening/dance:	listening
!!!:	*B-:
!!!One_Mode:	no
!!!Orig_tonic: G
**kern
*thru
*I"P1
*clefG2
*k[b-e-]
*B-:
!LO:TX:a:i:t=Bb-major
16fLL
16b-
16ddJJ
=18!|:
[4ff
16ffLL]
16ee-
16dd
16ee-JJ
=19
4dd
(16qqcc/LL
16qqdd/JJ
8ccL)
8b-J
=20
8ffL
8ggJ
16aa-XLL
16gg
16ff
16eenJJ
=21
4.ff
8fff
=22
(32fffLLL
32eee-
32ddd
32cccJJ
32eee-LL
32ddd
32ccc
32bb-JJJ
32dddLLL
32ccc
32bb-
32aaJJ
32cccLL
32bb-
32aa
32ggJJJ
=23
32bb-LLL
32aa
32gg
32ffJJ
32aaLL
32gg
32ff
32ee-JJJ
32ggLLL
32ff
32ee-
32ddJJ
32ffLL
32ee-
32dd
32ccJJJ)
=24
16ccLL
16dd
16ee-
16eenJJ
(16ffLL
16gg)
(16cc
16ee-XJJ)
=25
4.dd
(8qdd/
16ccLL)
16b-JJ
=26
16b-LL
(16ccc
16ddd)
16b-JJ
16aLL
(16bbn
16ccc)
16aJJ
=27
16ggLL
16aa
16bb-
16ggJJ
16ffLL
16ee-
16dd
16ccJJ
=28
(16b-LL
16a)
(16a
16ggJJ)
(16ggLL
16ff)
(16a
16ccJJ)
*>C1
=29
(16ccLL
16b-J)
[8b-J
16b-LL]
16f
16b-
16ddJJ
*>C
=18!|:
[4ff
16ffLL]
16ee-
16dd
16ee-JJ
=19
4dd
(16qqcc/LL
16qqdd/JJ
8ccL)
8b-J
=20
8ffL
8ggJ
16aa-XLL
16gg
16ff
16eenJJ
=21
4.ff
8fff
=22
(32fffLLL
32eee-
32ddd
32cccJJ
32eee-LL
32ddd
32ccc
32bb-JJJ
32dddLLL
32ccc
32bb-
32aaJJ
32cccLL
32bb-
32aa
32ggJJJ
=23
32bb-LLL
32aa
32gg
32ffJJ
32aaLL
32gg
32ff
32ee-JJJ
32ggLLL
32ff
32ee-
32ddJJ
32ffLL
32ee-
32dd
32ccJJJ)
=24
16ccLL
16dd
16ee-
16eenJJ
(16ffLL
16gg)
(16cc
16ee-XJJ)
=25
4.dd
(8qdd/
16ccLL)
16b-JJ
=26
16b-LL
(16ccc
16ddd)
16b-JJ
16aLL
(16bbn
16ccc)
16aJJ
=27
16ggLL
16aa
16bb-
16ggJJ
16ffLL
16ee-
16dd
16ccJJ
=28
(16b-LL
16a)
(16a
16ggJJ)
(16ggLL
16ff)
(16a
16ccJJ)
*>C2
=30:|!
(16ccLL
16b-JJ)
4b-
8cc
*>D
!!!End-Modulation
*-
